X:78
T:Durham Rangers
T:Sherwood Rangers
R:reel
M:4/4
L:1/8
K:D
FG|:ABAF A2 de|f2 e2 d2 A2|BcdB ABAF|G2 E2 E2 FG|
  |ABAF A2 de|f2 e2 d2 A2|BcdB ABAG|1 F2 D2 D2 FG:|2 F2 D2 D2 fg|
  |:afdf afdf|edcB A2 f2|g2 bg f2 af|g2 e2 e2 FG|
  |ABAF A2 de|f2 e2 d2 A2| BcdB ABAG|1 F2 D2 D2 fg:|2 F2 D2 D2 FG
